X: 233
T:Missus est Gabriel angelus
N: Derived from Jos2007-Missus_est_Gabriel_angelus.krn
C: Josquin des Prez
%%abc-version 2.0
%%abcx-abcm2ps-target-version 5.9.1 (29 Sep 2008)
%%abc-creator hum2abc beta
%%abcx-conversion-date 2019/02/12 16:15:50
%%abc-edited-by Jesse Rodin
%%abc-edited-by Jesse Rodin; Victoria Chang 2011/05/18
%%abcx-initial-encoding-date 2011/05/18/
%%humdrum-veritas 3663896040
%%humdrum-veritas-data 3020442949
%%linebreak <none>
%%barnumbers 0
L: 1/4
M: 2/1
Q: 1/2=120
%%staves [1 2 3 4]
V: 1 clef=treble
V: 2 clef=treble-8
V: 3 clef=treble-8
V: 4 clef=bass
K: F
[V:1] G,8 | 
[V:2] z8 | 
[V:3] z8 | 
[V:4] z8 | 
[V:1] G,4D4 | 
[V:2] z8 | 
[V:3] z8 | 
[V:4] z8 | 
[V:1] D4z2G2- | 
[V:2] G8 | 
[V:3] z8 | 
[V:4] z8 | 
[V:1] G2FEF2B,2- | 
[V:2] G4d4 | 
[V:3] z8 | 
[V:4] z8 | 
[V:1] B,2B4AG | 
[V:2] d4z2g2- | 
[V:3] G8 | 
[V:4] z8 | 
[V:1] B4A2B2- | 
[V:2] g2fef2B2- | 
[V:3] G4d4 | 
[V:4] z8 | 
[V:1] BAG4FE | 
[V:2] B2B4AG | 
[V:3] d4z2G2- | 
[V:4] G,,8 | 
[V:1] D8- | 
[V:2] B4A2d2- | 
[V:3] G2FEF2B,2- | 
[V:4] G,,4D,4 | 
[V:1] D8 | 
[V:2] d2cBA2B2- | 
[V:3] B,CDEF2G2 | 
[V:4] D,4z2G,2- | 
[V:1] z8 | 
[V:2] B2AGA2B2- | 
[V:3] D8 | 
[V:4] G,2F,E,F,2B,,2- | 
[V:1] z8 | 
[V:2] BAG4FE | 
[V:3] z4d4- | 
[V:4] B,,2B,4A,G, | 
[V:1] z8 | 
[V:2] D2d4^c2 | 
[V:3] d4e4 | 
[V:4] B,4A,4 | 
[V:1] z8 | 
[V:2] d8- | 
[V:3] f3edcB2- | 
[V:4] F,2B,3A,G,2- | 
[V:1] z8 | 
[V:2] d8 | 
[V:3] B2AGAGB2- | 
[V:4] G,2F,E,F,2G,2 | 
[V:1] F6ED | 
[V:2] z4d4 | 
[V:3] B2AGA4- | 
[V:4] D,8 | 
[V:1] E4D2F2- | 
[V:2] c4d4 | 
[V:3] A4z2D2- | 
[V:4] z8 | 
[V:1] FGABc2d2 | 
[V:2] f8- | 
[V:3] DEFGA2B2 | 
[V:4] z8 | 
[V:1] c2d4cB | 
[V:2] f4f4 | 
[V:3] A2B4AG | 
[V:4] z8 | 
[V:1] A6F2 | 
[V:2] f6ed | 
[V:3] F8 | 
[V:4] z4D,4 | 
[V:1] G2A2F2D2 | 
[V:2] e2A3FB2 | 
[V:3] z4d4 | 
[V:4] C,4D,4 | 
[V:1] A8 | 
[V:2] A4D4 | 
[V:3] c4d4 | 
[V:4] F,8- | 
[V:1] A3GABc2- | 
[V:2] z8 | 
[V:3] f6e2 | 
[V:4] F,4F,4 | 
[V:1] cBB4A2 | 
[V:2] z4F4 | 
[V:3] d4c4 | 
[V:4] F,8 | 
[V:1] G3FD2F2 | 
[V:2] G3ABcd2 | 
[V:3] B8 | 
[V:4] z4B,,4 | 
[V:1] E4D4 | 
[V:2] c2A4B2- | 
[V:3] z4F4 | 
[V:4] C,4D,4 | 
[V:1] z8 | 
[V:2] BAGFE2D2 | 
[V:3] G4A4 | 
[V:4] _E,4C,2D,2- | 
[V:1] z8 | 
[V:2] d4z2B2 | 
[V:3] B4G4 | 
[V:4] D,G,,G,,4G,2- | 
[V:1] z4F4 | 
[V:2] c4d4 | 
[V:3] A4D4 | 
[V:4] G,2F,E,F,2D,2 | 
[V:1] G4A4 | 
[V:2] _e4c2d2- | 
[V:3] z8 | 
[V:4] C,4z4 | 
[V:1] B4G4 | 
[V:2] dGG4g2- | 
[V:3] z8 | 
[V:4] z8 | 
[V:1] A4D4 | 
[V:2] g2fef4 | 
[V:3] z4A4- | 
[V:4] D,6D,2 | 
[V:1] z8 | 
[V:2] z8 | 
[V:3] A2A2A4 | 
[V:4] D,4D,4 | 
[V:1] z8 | 
[V:2] z8 | 
[V:3] A4G3A | 
[V:4] C,3D,E,F,G,2- | 
[V:1] z8 | 
[V:2] z8 | 
[V:3] Bcd4^c2 | 
[V:4] G,F,D,2E,4 | 
[V:1] z8 | 
[V:2] z4d4- | 
[V:3] d8 | 
[V:4] D,8 | 
[V:1] A6A2 | 
[V:2] d2d2d4 | 
[V:3] z8 | 
[V:4] z8 | 
[V:1] A4A4 | 
[V:2] d4c4- | 
[V:3] z8 | 
[V:4] z8 | 
[V:1] G6FE | 
[V:2] c2BAG3A | 
[V:3] z8 | 
[V:4] z8 | 
[V:1] D2F2E4 | 
[V:2] Bcd4^c2 | 
[V:3] z8 | 
[V:4] z8 | 
[V:1] D3EF2B,2- | 
[V:2] d2f3ed2 | 
[V:3] z8 | 
[V:4] B,,8 | 
[V:1] B,2A,2B,2G,2 | 
[V:2] c4B3A | 
[V:3] z8 | 
[V:4] F,,4G,,4 | 
[V:1] D6CB, | 
[V:2] G3FD4 | 
[V:3] B8 | 
[V:4] G,,3A,,B,,C,D,2- | 
[V:1] A,4G,4 | 
[V:2] z8 | 
[V:3] F4G4 | 
[V:4] D,E,F,D,E,2C,2 | 
[V:1] B,8 | 
[V:2] z8 | 
[V:3] G3ABcd2- | 
[V:4] G,,2G,4F,E, | 
[V:1] F,4G,4 | 
[V:2] z8 | 
[V:3] defde4 | 
[V:4] D,4C,4 | 
[V:1] G,3A,B,CD2- | 
[V:2] B8 | 
[V:3] d4G4 | 
[V:4] G,,2G,4F,E, | 
[V:1] DEFDE4 | 
[V:2] F4G4 | 
[V:3] A4c4 | 
[V:4] D,4C,4 | 
[V:1] D3CDEFG | 
[V:2] G3ABcd2- | 
[V:3] B8 | 
[V:4] z8 | 
[V:1] A2d4c2 | 
[V:2] defde4 | 
[V:3] z8 | 
[V:4] z8 | 
[V:1] B2AGF4 | 
[V:2] d8 | 
[V:3] z4d4 | 
[V:4] G,4D,2F,2- | 
[V:1] z4G4 | 
[V:2] z8 | 
[V:3] c2B2c4 | 
[V:4] F,2G,2E,4 | 
[V:1] F2B3AA2- | 
[V:2] z4d4 | 
[V:3] d8 | 
[V:4] D,8 | 
[V:1] A2GFE4 | 
[V:2] c2B2c4 | 
[V:3] z4A4 | 
[V:4] z8 | 
[V:1] D8 | 
[V:2] d8 | 
[V:3] B2G2B2A2- | 
[V:4] z4D,4 | 
[V:1] z8 | 
[V:2] z8 | 
[V:3] A2GFE4- | 
[V:4] C,2B,,2C,4 | 
[V:1] z4d4 | 
[V:2] z4d4 | 
[V:3] E2D2G4 | 
[V:4] G,,8 | 
[V:1] c2B2c4 | 
[V:2] e2d2c4- | 
[V:3] z2G2ABcd | 
[V:4] z8 | 
[V:1] G8 | 
[V:2] c2BAG4 | 
[V:3] e2f4e2 | 
[V:4] C,4C,4 | 
[V:1] z8 | 
[V:2] F4z4 | 
[V:3] f3edcd2 | 
[V:4] D,3C,D,E,F,2- | 
[V:1] z8 | 
[V:2] c4c4 | 
[V:3] cFB4A2 | 
[V:4] F,2E,D,C,4 | 
[V:1] z2D2F3G | 
[V:2] d3cdef2- | 
[V:3] B8 | 
[V:4] B,,8 | 
[V:1] A2B3AAG | 
[V:2] f2edc4 | 
[V:3] F8 | 
[V:4] z4F,4 | 
[V:1] B8 | 
[V:2] B6AG | 
[V:3] z4B4 | 
[V:4] G,4G,4 | 
[V:1] z8 | 
[V:2] FGABcde2- | 
[V:3] c6B2 | 
[V:4] A,6G,2 | 
[V:1] z8 | 
[V:2] edd4^c2 | 
[V:3] A4G4 | 
[V:4] F,4E,4 | 
[V:1] z4B4 | 
[V:2] d4D4 | 
[V:3] F4G4 | 
[V:4] D,3C,B,,4 | 
[V:1] c6B2 | 
[V:2] E2F2C2G2- | 
[V:3] A3Bc2d2- | 
[V:4] A,,6G,,2 | 
[V:1] A4G4 | 
[V:2] G2^F2G2e2- | 
[V:3] dcA2B2c2 | 
[V:4] D,4z2C,2 | 
[V:1] F4G4 | 
[V:2] edd4c2 | 
[V:3] A4G4 | 
[V:4] D,2F,2E,4 | 
[V:1] A4z2c2 | 
[V:2] f4e2c2 | 
[V:3] z2d2c2A2 | 
[V:4] D,4A,4 | 
[V:1] B2G2A4 | 
[V:2] d2e3dd2- | 
[V:3] B4A4 | 
[V:4] z2G,2F,2D,2 | 
[V:1] G3EFGA2- | 
[V:2] d2^c2d2f2 | 
[V:3] z2G2A2F2 | 
[V:4] E,4D,4 | 
[V:1] AGG4^F2 | 
[V:2] e2d3cd2 | 
[V:3] G2B2A4 | 
[V:4] z4D,4 | 
[V:1] G8 | 
[V:2] B2G2c3B | 
[V:3] G8 | 
[V:4] _E,6D,2 | 
[V:1] z8 | 
[V:2] AGG4^F2 | 
[V:3] z4A4 | 
[V:4] C,2B,,2A,,4 | 
[V:1] z2D2G3F | 
[V:2] G4d3c | 
[V:3] B6A2 | 
[V:4] G,,8 | 
[V:1] EDD4^C2 | 
[V:2] B2A2G2FE | 
[V:3] G2F2E4 | 
[V:4] z4G,4 | 
[V:1] D4A4 | 
[V:2] F4f4 | 
[V:3] D4d4 | 
[V:4] A,2F,4E,D, | 
[V:1] z2G2c3B | 
[V:2] g6f2 | 
[V:3] _e6d2 | 
[V:4] C,8 | 
[V:1] AGG4^F2 | 
[V:2] e2d3cd2 | 
[V:3] c2B2A4 | 
[V:4] z4D,4 | 
[V:1] G8 | 
[V:2] B2G2c3B | 
[V:3] G8 | 
[V:4] _E,6D,2 | 
[V:1] z4A4 | 
[V:2] AGG4^F2 | 
[V:3] z4c4 | 
[V:4] C,2B,,2A,,4 | 
[V:1] B6A2 | 
[V:2] G8- | 
[V:3] B4G4- | 
[V:4] G,,2G,4F,2 | 
[V:1] G2F2_E4 | 
[V:2] G8- | 
[V:3] G2ABc4 | 
[V:4] _E,2D,2C,3B,, | 
[V:1] D8 |]  
[V:2] G8 |]  
[V:3] B8 |]  
[V:4] G,,8 |]  



